src/components/layout/Footer/fb.svg

<svg width="14" height="14" viewBox="0 0 14 14" fill="none" xmlns="http://www.w3.org/2000/svg">
<path d="M13.7422 2.83688C13.7422 1.6626 12.7061 0.626465 11.5318 0.626465H2.62106C1.44678 0.626465 0.410645 1.6626 0.410645 2.83688V11.7476C0.410645 12.9219 1.44678 13.958 2.62106 13.958H7.11097V8.91553H5.45316V6.70511H7.11097V5.80713C7.11097 4.28747 8.21618 2.97503 9.59769 2.97503H11.3937V5.18544H9.59769C9.39047 5.18544 9.18324 5.39268 9.18324 5.80713V6.70511H11.3937V8.91553H9.18324V13.958H11.5318C12.7061 13.958 13.7422 12.9219 13.7422 11.7476V2.83688Z" fill="white"/>
</svg>

<svg xmlns="http://www.w3.org/2000/svg" width="14" height="14" fill="none"><path fill="#fff" d="M13.742 2.837c0-1.174-1.036-2.21-2.21-2.21h-8.91C1.446.626.41 1.662.41 2.836v8.91c0 1.175 1.036 2.211 2.21 2.211h4.49V8.916H5.453v-2.21h1.658v-.899c0-1.52 1.105-2.832 2.487-2.832h1.796v2.21H9.598c-.208 0-.415.208-.415.622v.898h2.21v2.21h-2.21v5.043h2.349c1.174 0 2.21-1.036 2.21-2.21V2.837Z"/></svg>
